!!!COM: Giovanni Pietro del Buono
!!!OPR: Canoni, oblighi et Sonate in varie maniere sopra l'Ave Maris Stella
!!!OTL: All'unisono a mezza pausa con l'obligo di non caminar di grado.
!!!PPR: P.Denti
!!!PDT: 1641
!!!PPP: Palermo
!!!YOR: Palermo: P.Denti, 1641 (microfilm)
!!!YOO: Civico Museo Bibliografico Musicale, Bologna.
**kern	**kern	**kern
*CF	*guida	*conseq
*k[]	*k[]	*k[]
*M4/2	*M4/2	*M4/2
=1	=1	=1
0D	2a	2r
.	4f	2a
.	4d	.
.	4a	4f
.	4dd	4d
.	4f	4a
.	4a	4dd
=2	=2	=2
(0A	4.cc	4f
.	.	4a
.	8e	.
.	4c	4.cc
.	4A	.
.	.	8e
.	2a	4c
.	.	4A
.	2f#	2a
=3	=3	=3
0B)	2d	2f#
.	2g	2d
.	4r	2g
.	4dd	.
.	4b	4r
.	4g	4dd
=4	=4	=4
0G	2dd	4b
.	.	4g
.	2b	2dd
.	4r	2b
.	4g	.
.	2e	4r
.	.	4g
=5	=5	=5
(0A	4c	2e
.	4cc	.
.	2a	4c
.	.	4cc
.	4r	2a
.	4a	.
.	2f#	4r
.	.	4a
=6	=6	=6
0B	4d	2f#
.	4dd	.
.	2b	4d
.	.	4dd
.	4g	2b
.	4dd	.
.	4r	4g
.	4g	4dd
=7	=7	=7
0c	2e	4r
.	.	4g
.	4c	2e
.	2cc	.
.	.	4c
.	4e	2cc
.	[2a	.
.	.	4e
=8	=8	=8
0d	4a]	2.a
.	4f	.
.	4d	.
.	4dd	4f
.	4b-	4d
.	4f	4dd
.	4r	4b-
.	4a	4f
=9	=9	=9
0c	4cc	4r
.	4e	4a
.	4g	4cc
.	4c	4e
.	2e	4g
.	.	4c
.	2g	2e
=10	=10	=10
0B	2d	2g
.	2dd	2d
.	2g	2dd
.	2r	2g
=11	=11	=11
0A	4r	2r
.	4a	.
.	4cc	4r
.	4ee	4a
.	4e	4cc
.	4c	4ee
.	2e	4e
.	.	4c
=12	=12	=12
0G	2g	2e
.	4d	2g
.	4b	.
.	2g	4d
.	.	4b
.	4r	2g
.	4e	.
=13	=13	=13
0A	4c	4r
.	4cc	4e
.	4a	4c
.	4f	4cc
.	4c	4a
.	4A	4f
.	2e	4c
.	.	4A
=14	=14	=14
0A	4c	2e
.	2ee	.
.	.	4c
.	4cc	2ee
.	2a	.
.	.	4cc
.	4cc	2a
.	4a	.
=15	=15	=15
0A	2f	4cc
.	.	4a
.	2a	2f
.	4e	2a
.	4cc	.
.	2ee	4e
.	.	4cc
=16	=16	=16
0G	2b	2ee
.	4r	2b
.	4b	.
.	2g	4r
.	.	4b
.	2e	2g
=17	=17	=17
0A	2c#	2e
.	4e	2c#
.	4a	.
.	2A	4e
.	.	4a
.	4f	2A
.	4a	.
=18	=18	=18
0D	4f	4f
.	4d	4a
.	4a	4f
.	4a	4d
.	4.d	4a
.	.	4a
.	8d	.
.	4b	4.d
.	4b	.
.	.	8d
=19	=19	=19
0E	4.g	4b
.	.	4b
.	8g	.
.	4e	4.g
.	4e	.
.	.	8g
.	4c	4e
.	4cc	4e
.	4.g	4c
.	.	4cc
.	8g	.
=20	=20	=20
0G	4b	4.g
.	4b	.
.	.	8g
.	4dd	4b
.	4g	4b
.	2b	4dd
.	.	4g
.	4r	2b
.	4d	.
=21	=21	=21
0F	4.a	4r
.	.	4d
.	8a	.
.	4f	4.a
.	4d	.
.	.	8a
.	2a	4f
.	.	4d
.	4cc	2a
.	4c	.
=22	=22	=22
0E	4.g	4cc
.	.	4c
.	8g	.
.	4e	4.g
.	4c	.
.	.	8g
.	4g	4e
.	4e	4c
.	4.b	4g
.	.	4e
.	8b	.
=23	=23	=23
0D	4dd	4.b
.	4f#	.
.	.	8b
.	4a	4dd
.	4d	4f#
.	2f#	4a
.	.	4d
.	2B	2f#
=24	=24	=24
0E	2g	2B
.	4r	2g
.	4e	.
.	2g	4r
.	.	4e
.	2r	2g
=25	=25	=25
0D	2a	2r
.	4f	2a
.	4d	.
.	4a	4f
.	2dd	4d
.	.	4a
.	4f	[4dd
=26	=26	=26
0F	2a	4dd]
.	.	4f
.	4d	2a
.	2f	.
.	.	4d
.	4c	2f
.	2cc	.
.	.	4c
=27	=27	=27
0E	2g	2cc
.	4b	2g
.	2e	.
.	.	4b
.	4g	2e
.	[2b	.
.	.	4g
=28	=28	=28
0G	4b]	2.b
.	4b	.
.	4dd	.
.	2b	4b
.	.	4dd
.	4g	2b
.	2e	.
.	.	4g
=29	=29	=29
0A	4c	2e
.	4cc	.
.	2a	4c
.	.	4cc
.	4cc	2a
.	2f	.
.	.	4cc
.	[4a	[4f
=30	=30	=30
0A	4a]	4f]
.	4A	2a
.	2c#	.
.	.	4A
.	4e	2c#
.	2a	.
.	.	4e
.	4a	[4a
=31	=31	=31
0D	2f	4a]
.	.	4a
.	4r	2f
.	4a	.
.	4d	4r
.	4dd	4a
.	4.b	4d
.	.	4dd
.	8b	.
=32	=32	=32
0E	4g	4.b
.	4b	.
.	.	8b
.	4ee	4g
.	4e	4b
.	4.g	4ee
.	.	4e
.	8g	.
.	4c	4.g
.	4cc	.
.	.	8g
=33	=33	=33
0F	2a	4c
.	.	4cc
.	2cc	2a
.	2f	2cc
.	2c	2f
=34	=34	=34
0E	2g	2c
.	4e	2g
.	2b	.
.	.	4e
.	4g	2b
.	2b	.
.	.	4g
=35	=35	=35
0D	4dd	2b
.	4d	.
.	2f	4dd
.	.	4d
.	4d	2f
.	2a	.
.	.	4d
.	4a	[4a
=36	=36	=36
0C	4cc	4a]
.	4c	4a
.	2e	4cc
.	.	4c
.	4c	2e
.	2g	.
.	.	4c
.	4e	[4g
=37	=37	=37
0E	2cc	4g]
.	.	4e
.	4e	2cc
.	2g	.
.	.	4e
.	4e	2g
.	2b	.
.	.	4e
=38	=38	=38
0G	4r	2b
.	4g	.
.	4dd	4r
.	4b	4g
.	4g	4dd
.	4d	4b
.	[2g	4g
.	.	4d
=39	=39	=39
0E	4g]	2.g
.	4g	.
.	4b	.
.	4e	4g
.	2ee	4b
.	.	4e
.	2cc	2ee
=40	=40	=40
0F	4a	2cc
.	4cc	.
.	4f	4a
.	4a	4cc
.	4c	4f
.	4A	4a
.	2c	4c
.	.	4A
=41	=41	=41
0E	4g	2c
.	4e	.
.	4c	4g
.	4G	4e
.	4g	4c
.	2b	4G
.	.	4g
.	4b	[4b
=42	=42	=42
[0D	2dd	4b]
.	.	4b
.	4a	2dd
.	2f	.
.	.	4a
.	4d	2f
.	2b-	.
.	.	4d
=43	=43	=43
0D_	4f	2b-
.	4dd	.
.	4a	4f
.	4d	4dd
.	2f#	4a
.	.	4d
.	2a	2f#
=44	=44	=44
0D]	0f#	0a
==	==	==
*-	*-	*-
!!!CDT: flourished 1641
!!!CNT: Italia
!!!ODT: <1641//
!!!YEP: David Huron and Denis Collins
!!!YEN: Canada
!!!AIN: vox; ?
!!!AST: polyphony
!!!RDT: 1995 April 29
!!!YED: 1995 August 31
!!!AFR: cantus firmus canon
!!!AMT: simple quadruple
!!!EEV: 1.0
